icons/src/svg/report_inactive.svg

<svg width="32" height="32" viewBox="0 0 32 32" fill="none" xmlns="http://www.w3.org/2000/svg">
<path d="M28 23.7574V6C28 4.89543 27.1046 4 26 4H24C22.8954 4 22 4.89543 22 6V17.7574L24 19.7574V6H26V21.7574L28 23.7574Z" fill="#0D0F13"/>
<path d="M19 14.7574V11C19 9.89543 18.1046 9 17 9H15C14.5095 9 14.0602 9.17658 13.7123 9.46965L15.2426 11H17V12.7574L19 14.7574Z" fill="#0D0F13"/>
<path d="M17 21.2426L19 23.2426V26C19 27.1046 18.1046 28 17 28H15C13.8954 28 13 27.1046 13 26V17.2426L15 19.2426V26H17V21.2426Z" fill="#0D0F13"/>
<path fill-rule="evenodd" clip-rule="evenodd" d="M6 14C4.89543 14 4 14.8954 4 16V26C4 27.1046 4.89543 28 6 28H8C9.10457 28 10 27.1046 10 26V16C10 14.8954 9.10457 14 8 14H6ZM6 16H8V26H6V16Z" fill="#0D0F13"/>
<path fill-rule="evenodd" clip-rule="evenodd" d="M2.29289 2.29289C2.68342 1.90237 3.31658 1.90237 3.70711 2.29289L29.7071 28.2929C30.0976 28.6834 30.0976 29.3166 29.7071 29.7071C29.3166 30.0976 28.6834 30.0976 28.2929 29.7071L2.29289 3.70711C1.90237 3.31658 1.90237 2.68342 2.29289 2.29289Z" fill="#0D0F13"/>
</svg>

<?xml version="1.0" encoding="utf-8"?>
<!-- Generator: Adobe Illustrator 26.0.1, SVG Export Plug-In . SVG Version: 6.00 Build 0)  -->
<svg version="1.1" id="Layer_1" xmlns="http://www.w3.org/2000/svg" xmlns:xlink="http://www.w3.org/1999/xlink" x="0px" y="0px"
	 viewBox="0 0 32 32" style="enable-background:new 0 0 32 32;" xml:space="preserve">
<path d="M28,23.8V6c0-1.1-0.9-2-2-2h-2c-1.1,0-2,0.9-2,2v11.8l2,2V6h2v15.8L28,23.8z M19,14.8V11c0-1.1-0.9-2-2-2h-2
	c-0.5,0-0.9,0.2-1.3,0.5l1.5,1.5H17v1.8L19,14.8z M17,21.2l2,2V26c0,1.1-0.9,2-2,2h-2c-1.1,0-2-0.9-2-2v-8.8l2,2V26h2V21.2z M6,14
	c-1.1,0-2,0.9-2,2v10c0,1.1,0.9,2,2,2h2c1.1,0,2-0.9,2-2V16c0-1.1-0.9-2-2-2H6z M6,16h2v10H6V16z M2.3,2.3c0.4-0.4,1-0.4,1.4,0
	l26,26c0.4,0.4,0.4,1,0,1.4c-0.4,0.4-1,0.4-1.4,0l-26-26C1.9,3.3,1.9,2.7,2.3,2.3z"/>
</svg>
